svg/color/coreum.svg

<svg width="64" height="65" viewBox="0 0 64 65" fill="none" xmlns="http://www.w3.org/2000/svg">
<g clip-path="url(#clip0_11313_5037)">
<rect y="0.303711" width="64" height="64" rx="32" fill="white"/>
<path fill-rule="evenodd" clip-rule="evenodd" d="M32 0.303711C49.6744 0.303711 64 14.6294 64 32.3037C64 49.9781 49.6744 64.3037 32 64.3037C14.3256 64.3037 0 49.9781 0 32.3037C0 14.6294 14.3256 0.303711 32 0.303711Z" fill="#25D695"/>
<path d="M25.7893 31.7321C25.7893 31.8311 25.7893 31.9239 25.8023 32.023C25.8088 32.1034 25.8284 32.1839 25.8349 32.2643C25.848 32.3695 25.861 32.4685 25.8871 32.5676C25.9002 32.6356 25.9198 32.7037 25.9393 32.7718C25.9654 32.877 25.9915 32.9884 26.0242 33.0874C26.0437 33.1493 26.0698 33.2112 26.0894 33.2731C26.1285 33.3783 26.1677 33.4897 26.2134 33.5887C26.2395 33.6506 26.2721 33.7063 26.2982 33.7682C26.3439 33.8672 26.3961 33.9662 26.4483 34.0591C26.4874 34.1271 26.5331 34.1952 26.5722 34.2633C26.6244 34.3437 26.6701 34.4242 26.7223 34.5047C26.7876 34.5913 26.8528 34.6779 26.918 34.7646C26.9572 34.8141 26.9963 34.8636 27.0355 34.9131C27.1399 35.0369 27.2508 35.1483 27.3617 35.2659C27.3683 35.2721 27.3748 35.2783 27.3813 35.2906C28.4253 36.3056 29.8803 36.943 31.4919 36.943C34.4085 36.943 36.8162 34.8698 37.175 32.1962C37.175 32.1715 37.1815 32.1467 37.1881 32.122C37.2011 32.0044 37.2076 31.8806 37.2142 31.7568C37.2142 31.6949 37.2272 31.6392 37.2272 31.5774C37.2272 31.565 37.2272 31.5526 37.2272 31.5402C37.2272 31.5278 37.2272 31.5155 37.2272 31.4969C37.2272 31.4226 37.2207 31.3546 37.2142 31.2803C37.2142 31.1813 37.2142 31.0761 37.2011 30.977C37.1946 30.8904 37.175 30.8038 37.162 30.7171C37.1489 30.6305 37.1359 30.5376 37.1163 30.451C37.0837 30.3087 37.0511 30.1663 37.0054 30.0302C36.9989 30.0054 36.9923 29.9806 36.9858 29.9559C36.2877 27.7032 34.0888 26.057 31.4854 26.057C29.5345 26.057 27.8119 26.9853 26.7745 28.4025C26.7745 28.4025 26.7745 28.4087 26.768 28.4149C26.6962 28.5201 26.6244 28.6253 26.5592 28.7305C26.5266 28.78 26.4939 28.8233 26.4678 28.8729C26.4222 28.9533 26.383 29.0338 26.3439 29.1142C26.3047 29.1947 26.259 29.2751 26.2199 29.3556C26.1873 29.4237 26.1677 29.4917 26.1351 29.5598C26.0959 29.6588 26.0568 29.7579 26.0242 29.8569C25.9981 29.925 25.985 29.9992 25.9654 30.0673C25.9393 30.1663 25.9067 30.2715 25.8806 30.3705C25.861 30.451 25.8545 30.5315 25.8349 30.6181C25.8154 30.7171 25.8023 30.8099 25.7893 30.909C25.7762 31.0018 25.7762 31.0946 25.7697 31.1875C25.7697 31.2679 25.7566 31.3484 25.7566 31.4288C25.7566 31.4412 25.7566 31.4536 25.7566 31.466C25.7566 31.4783 25.7566 31.4907 25.7566 31.5031C25.7566 31.5835 25.7632 31.6578 25.7697 31.7383L25.7893 31.7321Z" fill="white"/>
<path d="M31.662 10C25.3601 10 19.656 12.4168 15.5306 16.3243L16.674 17.4468C18.9608 19.606 21.2542 21.7775 23.567 23.9735C25.6265 21.9983 28.4916 20.7715 31.662 20.7715C37.9379 20.7715 43.0248 25.5745 43.0248 31.5C43.0248 37.4255 37.9379 42.2285 31.662 42.2285C28.5046 42.2285 25.6525 41.014 23.593 39.0511L15.4331 46.5776C19.565 50.5402 25.3082 53 31.662 53C44.2397 53 54.4331 43.3756 54.4331 31.5C54.4331 19.6244 44.2332 10 31.662 10Z" fill="white"/>
</g>
<rect x="0.5" y="0.803711" width="63" height="63" rx="31.5" stroke="#070B14" stroke-opacity="0.15"/>
<defs>
<clipPath id="clip0_11313_5037">
<rect y="0.303711" width="64" height="64" rx="32" fill="white"/>
</clipPath>
</defs>
</svg>

<svg xmlns="http://www.w3.org/2000/svg" width="64" height="65" fill="none" viewBox="0 0 64 65"><g clip-path="url(#coreum_svg-a)"><rect width="64" height="64" y=".304" fill="#fff" rx="32"/><path fill="#25D695" fill-rule="evenodd" d="M32 .304c17.674 0 32 14.325 32 32 0 17.674-14.326 32-32 32s-32-14.326-32-32c0-17.675 14.326-32 32-32" clip-rule="evenodd"/><path fill="#fff" d="M25.79 31.732c0 .1 0 .192.012.291.007.08.026.16.033.241.013.105.026.204.052.304.013.068.033.136.052.204.026.105.052.216.085.315.02.062.046.124.065.186.04.105.079.217.124.316.026.062.06.117.085.18q.07.149.15.29c.04.068.085.136.124.204.052.08.098.161.15.242l.196.26.117.148c.105.124.216.235.327.353a.1.1 0 0 1 .02.025 5.9 5.9 0 0 0 4.11 1.652c2.916 0 5.324-2.073 5.683-4.747 0-.024.007-.05.013-.074q.018-.178.026-.365c0-.062.013-.118.013-.18v-.08c0-.074-.006-.142-.013-.217 0-.099 0-.204-.013-.303-.006-.087-.026-.173-.039-.26-.013-.086-.026-.18-.046-.266a4 4 0 0 0-.11-.42l-.02-.075c-.698-2.253-2.897-3.899-5.5-3.899-1.951 0-3.674.928-4.712 2.346q.001.001-.006.012-.11.157-.209.316c-.032.049-.065.092-.091.142q-.067.12-.124.241c-.04.08-.085.161-.124.242-.033.068-.052.136-.085.204q-.061.149-.11.297c-.027.068-.04.142-.06.21-.026.1-.058.204-.084.303-.02.081-.026.162-.046.248a5 5 0 0 0-.046.291c-.013.093-.013.186-.02.279 0 .08-.012.16-.012.24v.075c0 .08.006.155.013.235z"/><path fill="#fff" d="M31.662 10c-6.302 0-12.006 2.417-16.131 6.324l1.143 1.123c2.287 2.159 4.58 4.33 6.893 6.527 2.06-1.976 4.925-3.203 8.095-3.203 6.276 0 11.363 4.804 11.363 10.729 0 5.926-5.087 10.728-11.363 10.728-3.157 0-6.01-1.214-8.069-3.177l-8.16 7.527C19.565 50.54 25.308 53 31.662 53c12.578 0 22.771-9.624 22.771-21.5S44.233 10 31.662 10"/></g><rect width="63" height="63" x=".5" y=".804" stroke="#070B14" stroke-opacity=".15" rx="31.5"/><defs><clipPath id="coreum_svg-a"><rect width="64" height="64" y=".304" fill="#fff" rx="32"/></clipPath></defs></svg>
